X:584
T: Gongnonghongjun daogutian
N: C2005
O: China,Fujian Shanghang
S: II, 584, 1)]
R: Shange, Gutianshange]
M: 2/4
L: 1/16
K: D
A2A2AdBA | e8 |
e2d2dBA6
A2d2B2e2 | B2A2d2B6
AFA6 | (3e2d2B2BedB | A8 |
A2d2BdA2 | B6
B2 | A2d2d2B2 | A8

@@@ Tune index: 7139
